X: 937
T: The Boys of Ballinamore.
B:O'Neill's 937
N:"collected by West."
Z:Transcribed by Tom Keays (htkeays@mailbox.syr.edu)
Z:abc 1.6
M:6/8
R:Jig
L:1/8
K:D
d/B || cAF G2 G | ABc AdB | cAF GFG | Ade fed |
cAF G2 G | ABc AdB | cAF GFG | Adc d2 ||
|| g | fed efg | ecc gcc | fed efg | age d2 (d/e/) |
fed efg | eccgcc | faf (e/f/g)e | d2 e fed |]


